X: 22
T:The Log Cabin
M:4/4
L:1/8
S:Des Donelly (fiddle)
R:Reel
D:From an ancient tape
H:Bar 12 is slurred into bar 13 (C-D) but macabc2ps can't do this across line breaks
N:As played
Z:Bernie Stocks
K:D
A,CDE FGAB | (3=cBcDE FAAB | (3dcd cd BdAG | FDDB, =CEDC | 
A,CDE FGAB | (3=cBcDE FGAB | (3dcd cd BdAF | EA,CE DA,~A,2 | 
A,CDE FGAB | (3=cBcDE FGAB | (3.d.d.d cd (3Bcd AG | FDDB, =CEDC |
D2DE FGAB | (3=cBc DE FGAB | (3dcB (3cBA BdAF | EDCE D3d || 
d2fd Adfd | (3.d.d.dfd eB~B2 | (3.d.d.dfd adfd |  =cAGE D2FA | 
d2fd adfd | d-^def (3gfe fg | afge (3fgaed | (3cBA (3GFE DAFA | 
ddfd adfd | gdfd edBA | (3.d.d.dfd adfd | =cAGE DAFA | 
(3.d.d.dfd adfd | d-^def g2(3.g.g.g | afge fded | cAGE D=CA,C ||
<end>
<start>
